X: 35905
T: Sandy McConnell's
R: waltz
M: 3/4
K: Gmajor
D2|G2 B2 D2|G2 B2 D2|E3 F ED|E4 D2|F2 A2 D2|
F2 A2 D2|G3 A BA|G4:|:Bc|d2 B2 G2|d2 B2 G2|
E3 F ED|E4 D2|F2 A2 D2|F2 A2 D2|G3 A BA|G4:|

